X: 29664
T: Norwegian
R: polka
M: 2/4
K: Dmajor
|:DF/4E/4D/ AA|D/F/A/d/ ff|g/>f/e/>d/ c/<B/A|c/>B/ A/<F/ G/>F/E/>F/|
DF/4E/4D/ AA|D/F/A/d/ ff|g/>f/e/>d/ c/>A/B/>c/|1 dd d2:|2 dd d/e/=f/g/||
K: Dmin^c
|:a2 g2|fe/d/ cA|f/g/a/g/ fe/d/|c/d/e/d/ c/A/f/g/|
a2 g2|fe/d/ cA|f/g/a/g/ fe/d/|1 c/d/e/c/ d/e/f/g/:|2 c/d/e/c/ d/e/>^f/||
K: Dmaj
|:gB B/>g/f/>e/|fA A/>f/e/>d/|cE/>F/ G/>AB/>c/|dD/>F/ A/>d/e/>f/|
gB B/>g/f/>e/|fA A/>f/e/>d/|cE/>F/ G/>A/B/>c/|1 dd d/e/>f/:|2 dd d2||

